public/Star.svg

<svg width="400" height="200" viewBox="0 0 400 200" fill="none" xmlns="http://www.w3.org/2000/svg">
<path d="M261.012 91.9998C260.721 91.9997 260.433 91.9254 260.175 91.7832L251 86.7255L241.825 91.7832C241.528 91.9471 241.193 92.0205 240.858 91.9951C240.523 91.9697 240.201 91.8465 239.93 91.6395C239.658 91.4325 239.447 91.15 239.32 90.8237C239.193 90.4975 239.156 90.1407 239.213 89.7935L240.966 79.0809L233.543 71.4953C233.303 71.2494 233.133 70.9379 233.052 70.596C232.972 70.254 232.984 69.8953 233.088 69.5604C233.192 69.2254 233.383 68.9276 233.64 68.7005C233.896 68.4734 234.209 68.3262 234.541 68.2754L244.799 66.7123L249.385 56.9663C249.551 56.672 249.787 56.428 250.07 56.2586C250.354 56.0891 250.674 56 251 56C251.326 56 251.646 56.0891 251.929 56.2586C252.213 56.428 252.449 56.672 252.615 56.9663L257.201 66.7122L267.459 68.2752C267.791 68.326 268.104 68.4732 268.36 68.7003C268.617 68.9274 268.808 69.2252 268.912 69.5602C269.016 69.8951 269.028 70.2539 268.948 70.5958C268.867 70.9377 268.697 71.2493 268.457 71.4952L261.034 79.0807L262.787 89.7934C262.831 90.0643 262.818 90.3421 262.75 90.6074C262.681 90.8727 262.558 91.119 262.389 91.3291C262.22 91.5393 262.009 91.7082 261.771 91.824C261.533 91.9398 261.275 91.9999 261.012 91.9998Z" fill="url(#paint0_radial_222_1744)"/>
<path d="M366.125 61.9998C365.801 61.9996 365.481 61.9171 365.194 61.7592L355 56.1395L344.806 61.7592C344.475 61.9412 344.103 62.0228 343.731 61.9945C343.359 61.9663 343.001 61.8295 342.699 61.5995C342.398 61.3695 342.163 61.0555 342.022 60.693C341.882 60.3306 341.84 59.9341 341.903 59.5484L343.851 47.6454L335.604 39.217C335.337 38.9438 335.148 38.5977 335.058 38.2177C334.969 37.8378 334.983 37.4392 335.098 37.0671C335.213 36.6949 335.425 36.364 335.711 36.1116C335.996 35.8593 336.343 35.6957 336.712 35.6393L348.109 33.9026L353.206 23.0737C353.39 22.7466 353.653 22.4756 353.967 22.2873C354.282 22.099 354.638 22 355 22C355.362 22 355.718 22.099 356.033 22.2873C356.347 22.4756 356.61 22.7466 356.794 23.0737L361.891 33.9024L373.288 35.6391C373.657 35.6955 374.004 35.8592 374.289 36.1115C374.575 36.3638 374.787 36.6947 374.902 37.0669C375.017 37.4391 375.031 37.8376 374.942 38.2176C374.852 38.5975 374.663 38.9436 374.396 39.2168L366.149 47.6453L368.097 59.5482C368.146 59.8492 368.132 60.1579 368.055 60.4527C367.979 60.7474 367.842 61.0211 367.654 61.2546C367.466 61.4881 367.232 61.6757 366.968 61.8045C366.704 61.9332 366.416 61.9999 366.125 61.9998Z" fill="url(#paint1_radial_222_1744)"/>
<defs>
<radialGradient id="paint0_radial_222_1744" cx="0" cy="0" r="1" gradientUnits="userSpaceOnUse" gradientTransform="translate(251 74) rotate(90) scale(18)">
<stop offset="0.125" stop-color="white"/>
<stop offset="1" stop-color="#BBF7FF"/>
</radialGradient>
<radialGradient id="paint1_radial_222_1744" cx="0" cy="0" r="1" gradientUnits="userSpaceOnUse" gradientTransform="translate(355 42) rotate(90) scale(20)">
<stop offset="0.125" stop-color="white"/>
<stop offset="1" stop-color="#BBF7FF"/>
</radialGradient>
</defs>
</svg>

<svg xmlns="http://www.w3.org/2000/svg" width="400" height="200" fill="none"><path fill="url(#a)" d="M261.012 92c-.291 0-.579-.075-.837-.217L251 86.725l-9.175 5.058a1.728 1.728 0 0 1-1.895-.144 1.88 1.88 0 0 1-.61-.815 1.966 1.966 0 0 1-.107-1.03l1.753-10.713-7.423-7.586a1.92 1.92 0 0 1-.491-.899c-.08-.342-.068-.7.036-1.036.104-.335.295-.632.552-.86a1.76 1.76 0 0 1 .901-.425l10.258-1.563 4.586-9.746c.166-.294.402-.538.685-.707a1.806 1.806 0 0 1 1.859 0c.284.169.52.413.686.707l4.586 9.746 10.258 1.563c.332.051.645.198.901.425.257.227.448.525.552.86.104.335.116.694.036 1.036a1.92 1.92 0 0 1-.491.9l-7.423 7.585 1.753 10.712c.044.271.031.55-.037.814a1.923 1.923 0 0 1-.361.722c-.169.21-.38.38-.618.495a1.729 1.729 0 0 1-.759.176Z"/><path fill="url(#b)" d="M366.125 62c-.324 0-.644-.083-.931-.24L355 56.14l-10.194 5.62a1.925 1.925 0 0 1-2.107-.16 2.095 2.095 0 0 1-.677-.907 2.199 2.199 0 0 1-.119-1.145l1.948-11.903-8.247-8.428a2.131 2.131 0 0 1-.546-1 2.203 2.203 0 0 1 .04-1.15c.115-.372.327-.703.613-.955a1.957 1.957 0 0 1 1.001-.473l11.397-1.736 5.097-10.83c.184-.326.447-.597.761-.786A2.012 2.012 0 0 1 355 22c.362 0 .718.099 1.033.287.314.189.577.46.761.787l5.097 10.828 11.397 1.737c.369.056.716.22 1.001.472.286.253.498.584.613.956.115.372.129.77.04 1.15-.09.38-.279.727-.546 1l-8.247 8.428 1.948 11.903c.049.301.035.61-.042.905a2.125 2.125 0 0 1-.401.802 2.018 2.018 0 0 1-.686.55 1.922 1.922 0 0 1-.843.195Z"/><defs><radialGradient id="a" cx="0" cy="0" r="1" gradientTransform="matrix(0 18 -18 0 251 74)" gradientUnits="userSpaceOnUse"><stop offset=".125" stop-color="#fff"/><stop offset="1" stop-color="#BBF7FF"/></radialGradient><radialGradient id="b" cx="0" cy="0" r="1" gradientTransform="matrix(0 20 -20 0 355 42)" gradientUnits="userSpaceOnUse"><stop offset=".125" stop-color="#fff"/><stop offset="1" stop-color="#BBF7FF"/></radialGradient></defs></svg>
